svg/u1fab9.svg

<svg viewBox="0 0 128 128" xmlns="http://www.w3.org/2000/svg" xmlns:xlink="http://www.w3.org/1999/xlink">
  <path d="M35.29,94.4l-9.17-4.8l-3.78-8.89l-7.07-6.81c0,0-0.68-1.51-0.94-2.69 c-0.22-1.02-0.22-3.25-0.22-3.25l-6.44-7.49l-2.23-5.31l-1.15-5.65c0,0,3.15,1.87,5.38,3.49s5.03,3.17,5.03,3.17l0.9-7.48l2.23-8.85 l3.93-2c0,0,0.38-2.62,2.77-4.93s5.54-3.31,5.54-3.31l12.86-0.77l11.01-0.85l10.78-6.93c0,0,4.77-0.62,9.78,0.62 s17.32,7.62,17.32,7.62l16.78,1l3.7,4.08c0,0,4.26,1.66,7.39,3.93c2.84,2.05,3.09,3.29,3.09,3.29l-3.01,14.19l-11.7,18.17 l-15.21,6.45L58.87,95.12l-2.98,5.1l-12.9-2.7L35.29,94.4z" fill="#B7885A"/>
  <path d="M31.19,60.59c0,0-3.05,1.02-4.77,0c-1.8-1.06-3.13-2.65-3.53-6.74c-0.51-5.26,1.41-9.18,1.41-9.18 l4.91-3.08l4.24,0.77l10.69-8.18h13.09l5.39-0.77l14.82-0.77l20.79,5.97l7.22,8.66l-2.6,8.09l-1.83,1.44c0,0-1.06,2.14-5.51,4.61 c-2.36,1.31-4.5,2.51-4.5,2.51s-4.16,2.39-12.58,2.97c-5.32,0.37-11.08-0.61-13.33-0.35c-2.28,0.26-6.91,4.23-18.24,2.34 c-4.91-0.82,8.07-1.99,3.27-3.39C45.34,64.1,31.19,60.59,31.19,60.59z" fill="#8C6238"/>
  <path d="M105.2,69.19c0,0-1.51-0.94-0.85-2.83s2.03-2.41,5-4.24c2.96-1.84,5.44-3.73,7.52-7.3 c2.8-4.81,5.89-13.29,5.89-13.29s1.73,3.95,0.74,10.78c-0.63,4.37-2.07,6.98-2.07,6.98s-0.19,6.03-0.85,8.39s-3.02,6.79-3.02,6.79 l-6.73,8.34c0,0-0.12,4.21-3.39,7.48c-1.87,1.87-5.75,3.92-7.83,4.44c-4.4,1.11-8.99,3.33-12.39,5.15 c-1.94,1.03-10.6,6.16-15.55,7.6c-8.69,2.52-13.26-1.37-15.19-2.28c-1-0.47-4.52-1.98-6.22-3.11c-1.7-1.13-3.21-2.45-3.21-2.45 s-6.5-0.09-8.11-1.32c-1.6-1.23,1.79-4.05,1.79-4.05s3.11,2.17,7.07,3.21s7.07,1.51,7.26,0.28c0.19-1.23-3.21-1.6-6.32-3.11 c-3.11-1.51-6.13-3.21-7.16-4.15c-1.04-0.94-1.04-2.45-0.47-3.39c0.57-0.94,1.7-1.6,3.68-0.85c1.98,0.75,5.38,2.7,8.58,3.87 c3.11,1.13,6.41,2.36,7.07,0.09s-2.26-2.73-4.62-4.05s-4.62-2.73-5.47-3.58s-1.04-2.45,0.19-3.58c1.23-1.13,3.39-0.57,3.39-0.57 l11.22,3.58l11.12,0.19l9.24-4.52l3.11-0.75l3.49-1.7L105.2,69.19z" fill="#A2764A"/>
  <path d="M15.2,73.74c0,0,0.73-0.78,1.48-0.03c0.75,0.75,3.58,4.72,7.16,5.66c3.58,0.94,5.79,0.66,6.04,2.8 c0.28,2.42-3.59,2.26-6.51,1.15c-3.65-1.39-5.39-4.4-6.33-5.91C16.1,75.91,15.2,73.74,15.2,73.74z" fill="#A2764A"/>
  <path d="M11.47,58.32c-1.04,1-0.44,2.43,1.16,4.12s3.2,2.96,4.22,3.59c1.02,0.63,2.23,0.44,2.77-0.39 c0.41-0.64,0.34-1.75-0.63-2.62c-0.79-0.71-1.94-1.94-3.69-3.44C14.44,58.84,13.02,56.81,11.47,58.32z" fill="#A2764A"/>
  <path d="M77.91,88.66c-0.05,1.63,1.68,2.25,6.45,1.55c5.28-0.78,5.67-1.86,5.44-3.73s-3.03-1.16-5.9-0.7 C81.01,86.26,77.99,86.18,77.91,88.66z" fill="#B7885A"/>
  <path d="M117.98,71.42c-0.93,0-4.04,3.11-7.45,5.44s-7.14,4.58-8.23,5.2c-1.09,0.62-1.79,1.86-1.32,3.03 c0.47,1.16,2.48,1.63,4.66,0.78c2.17-0.85,4.98-2.41,7.07-3.96c2.72-2.02,5.05-3.96,5.9-7.22 C119.04,73.01,118.91,71.42,117.98,71.42z" fill="#B7885A"/>
  <path d="M72.16,72.61c0.44,0.67,1.28,1.22,3.22,0.1c4.12-2.38,8.81-5.86,12.45-8.53 c4.12-3.02,8.68-7.29,9.47-8.13c0.79-0.84,2.42-2.9,1.29-3.92c-1.54-1.39-2.75,0.28-4.91,2.23c-2.68,2.43-6.5,5.75-8.93,7.69 c-2.43,1.93-9.37,6.6-10.22,7.14C73.7,69.74,71.12,71.03,72.16,72.61z" fill="#D29B64"/>
  <path d="M27.63,55.29c-1.09,0.85-0.74,2.7,1.08,4.46c1.82,1.76,3.85,4.05,10.47,5.94 c0.83,0.24,1.64,0.43,2.42,0.59c5.5,1.11,9.89,0.43,11.49,0.02c1.82-0.47,3.51-2.5,2.03-3.92c-1.11-1.06-7.51,1.05-14.85-1.22 C31.27,58.4,30.4,53.13,27.63,55.29z" fill="#D29B64"/>
  <path d="M29.86,64.95c-0.67,1.46-0.07,2.43,2.3,3.31s6.42,2.14,7.76,2.9c1.9,1.08,3.29,0.44,3.71-0.54 c0.61-1.42-0.47-2.4-1.62-2.97c-1.49-0.74-6.68-2.9-8.37-3.38C32.22,63.88,30.6,63.33,29.86,64.95z" fill="#D29B64"/>
  <path d="M87.65,72.67c-0.44,1.39,0.17,3.38,5.99,3.66c4.67,0.22,8.42-1.4,10.7-2.83 c2.38-1.5,3.55-3.94,2.55-5.05s-2.5-0.11-4.66,1.11c-2.4,1.35-4.88,2.61-9.65,2.11C90.5,71.46,88.12,71.23,87.65,72.67z" fill="#D29B64"/>
  <path d="M78.21,79.27c0,0-2.54-0.67-3.14-1.8c-0.6-1.13-0.13-2.27,1-2.54c1.13-0.27,2.67,0.53,5.41,0.87 c2.74,0.33,5.27,0.2,6.41,0.2c2.27,0,2.34,2.74,0.27,3.6c-2.07,0.87-4.4,0.53-4.4,0.53s-2.8,4.67-11.88,4.34 c-9.08-0.33-16.83-4.85-18.08-5.54c-2.2-1.2-0.87-3.4,0.53-3.07c1.4,0.33,11.01,4.74,16.42,4.8C76.14,80.74,78.21,79.27,78.21,79.27 z" fill="#D29B64"/>
  <path d="M29.2,77.17c-0.71,1.84-2.22,1.82-5.01,0.46c-2.79-1.37-10.75-8.14-14.34-11.89 c-3.58-3.76-4.04-5.06-4.21-6.09C5.54,59,5.19,57.76,5.19,57.76s-2.84-3.08-3.02-5.18C1.95,49.85,3.09,49,4.45,49.57 c1.37,0.57,0.74,1.76,1.25,3.41c0.23,0.73,2.45,2.73,2.79,4.1c0.27,1.07,0.46,1.65,0.57,2.28s2.16,3.7,7.97,8.31 c5.01,3.98,8.36,5.58,9.73,6.2S29.89,75.4,29.2,77.17z" fill="#D29B64"/>
  <path d="M14.34,55.91c0,0-4.99-6.7-1.86-13.87c2.18-5.01,5.97-5.01,7.51-4.94c0.96,0.04,2.31,0.58,2.12,2.25 c-0.28,2.39-2.02,1.38-3.53,2.83c-1.48,1.41-2.05,4.37-1.09,8.8c0.96,4.43,3.13,7.32,3.4,8.6c0.26,1.22-0.64,1.8-1.61,1.28 S15.94,58.05,14.34,55.91z" fill="#D29B64"/>
  <path d="M22.76,90.17c0,0-3.02,3.23-5.07,8.67c-2.05,5.44-2.66,9.94-1.71,10.88s10.57-2.21,15.69-6.15 c7.35-5.66,5.28-10.88,5.28-10.88s-1.55-1.75-4.23-3.01c-2.33-1.1-4.68-1.8-4.68-1.8s-0.71-2.29-2.84-3.94s-4.89-2.6-8.12-2.44 s-7.94,2.71-10.07,5s-3.78,4.56-3.42,5.41c0.51,1.2,6.34-1.05,10.75-1.13C18.76,90.7,22.76,90.17,22.76,90.17z" fill="#6E9921"/>
  <path d="M20.92,103.69c0.82,0.47,5.25-4.93,8.04-7.53c2.73-2.55,5.58-5.47,5.58-5.47s-0.87-0.54-1.7-1.01 c-0.52-0.29-1.45-0.58-1.45-0.58s-2.21,1.16-5.32,5.4C23.52,97.94,20.16,103.26,20.92,103.69z" fill="#2F7C31"/>
  <path d="M10.02,87.03c0.51,1.27,2.75-0.91,7.32-1.45c4.44-0.53,9.67,0.4,9.67,0.4s-0.54-1.09-1.52-1.92 c-0.94-0.8-1.92-1.27-1.92-1.27s-4.6-0.58-7.75,0.58C13.03,84.4,9.49,85.72,10.02,87.03z" fill="#2F7C31"/>
  <path d="M108.83,40.09c-1-0.4-2.49-0.88-3.34,0.49c-0.18,0.29-0.28,0.57-0.33,0.82 c-1.68-1.93-3.68-2.37-4.01-2.43c0.5,0.09,6.14,1.02,6.14-1.22c0-2.34-2.98-2.84-6.19-3.38c-3.21-0.53-8.45-0.47-8.45-0.47 s3.17-1.48,6.55-1.83c2.99-0.31,4.56-0.21,6.69,0.79c2.14,1,2.88,3.01,4.02,3.08c1.14,0.07,2.85-0.99,2.78-2.13 c-0.07-1.14-1.37-3.22-3.31-4.76c-0.03-0.02-0.06-0.04-0.09-0.07c-0.89-0.72-2.36-1.46-4.73-1.89c-0.4-0.08-0.65-0.12-0.65-0.12 s-2.44-2.64-4.38-4.45s-3.47-2.94-4.61-3.01c-1.14-0.07-1.31,0.85-1.13,1.56c0.16,0.61,3.91,4.52,5.02,5.66 c-7.9,0.29-12.91,3.47-12.91,3.47s-3.96-2.62-10-3.7C70.97,25.61,67,26.55,67,26.55s2.15-1.27,1.77-3.65 c-0.31-1.98-5.06-3.44-11.64-0.51c-5.26,2.34-7.61,4.68-7.61,4.68s-5.08-2.14-7.28-3.01c-2.2-0.87-4.28-2.14-5.01-2.14 s-1.87,1.74-1.74,2.2s2.34,2.4,2.34,2.4s-5.14-0.13-9.62-0.33C23.73,26,22,25.87,20.66,26c-1.34,0.13-3.41,1.47-3.21,2.74 s5.34,1.07,8.48,1.27c3.14,0.2,7.08,0.13,7.08,0.13s-3.41,2-5.14,3.61c-1.74,1.6-2.81,3.14-1.6,4.61c1.2,1.47,3.14-0.27,4.81-1.8 c1.67-1.54,3.41-3.01,5.54-3.54c2.14-0.53,4.07-0.33,4.07-0.33s-3.26,2.02-4.61,3.27c-1.89,1.76-2.74,3.67-2.74,3.67 s-4.21-0.73-6.35,0.4s-5.57,2.63-5.81,7.55c-0.24,4.9,1.54,4.74,2.14,4.81c0.6,0.07,1.27-1.2,1.47-2.61s0.4-3.54,2.54-5.21 c2.14-1.67,4.28-1.07,4.28-1.07s-1.07,2.47,0.27,3.27c1.34,0.8,2.2-0.94,3.54-2.4c1.34-1.47,3.44-3.88,9.72-6.52 c6.28-2.64,8.06-2.71,9.61-2.87c1.55-0.16,2.87-0.47,2.87-1.78c0-1.32-2.95-1.55-2.95-1.55s1.01-2.17,4.11-3.95 c3.1-1.78,5.5-1.67,5.77-0.98c0.57,1.51-3.75,1.83-3.98,5.01s3.89,2.21,5.76,2.13c1.86-0.08,4.84-0.09,8.03,0.47 c2.87,0.5,6.45,1.5,9.02,2.45c3.65,1.36,5.49,3.42,6.57,3.81s5.42,0.05,9.44,2.56c3.62,2.26,4.28,6.53,3.05,9.36 c-0.78,1.78-1.64,3.11-1.63,3.95c0.01,0.84,0.78,1.01,1.86,0.16c3.06-2.4,4.94-6.22,5.07-8c0.01-0.11,0-0.19,0-0.3 c0.02-0.22,0.02-0.46,0.01-0.7c0-0.06,0-0.13-0.01-0.19c-0.01-0.18-0.04-0.37-0.07-0.56c-0.02-0.16-0.05-0.32-0.08-0.46 c-0.03-0.13-0.07-0.26-0.1-0.39c-0.03-0.09-0.05-0.18-0.07-0.26c-0.13-0.44-0.29-0.9-0.51-1.4c1.15,0.48,4.22,1.84,4.26,2.82 c0.11,2.17-3.14,6.54-6.08,8.94c-2.94,2.4-10.52,5.51-11.52,5.91c-1,0.4-2.43,1.19-2.1,2.51c0.31,1.24,2.39,1.45,3.67,1.07 c2.49-0.73,8.14-2.72,12.55-6.39c4.41-3.67,7.29-8.5,7.63-12.04C115.65,43.63,109.83,40.49,108.83,40.09z" fill="#D29B64"/>
</svg>

<svg viewBox="0 0 128 128" xmlns="http://www.w3.org/2000/svg">
  <defs/>
  <path d="M35.29,94.4 L26.12,89.6 L22.34,80.71 L15.27,73.9 C15.27,73.9 14.59,72.39 14.33,71.21 C14.11,70.19 14.11,67.96 14.11,67.96 L7.67,60.47 L5.44,55.16 L4.29,49.51 C4.29,49.51 7.44,51.38 9.67,53 C11.9,54.62 14.7,56.17 14.7,56.17 L15.6,48.69 L17.83,39.84 L21.76,37.84 C21.76,37.84 22.14,35.22 24.53,32.91 C26.92,30.6 30.07,29.6 30.07,29.6 L42.93,28.83 L53.94,27.98 L64.72,21.05 C64.72,21.05 69.49,20.43 74.5,21.67 C79.51,22.91 91.82,29.29 91.82,29.29 L108.6,30.29 L112.3,34.37 C112.3,34.37 116.56,36.03 119.69,38.3 C122.53,40.35 122.78,41.59 122.78,41.59 L119.77,55.78 L108.07,73.95 L92.86,80.4 L58.87,95.12 L55.89,100.22 L42.99,97.52 L35.29,94.4 Z" fill="#B7885A"/>
  <path d="M31.19,60.59 C31.19,60.59 28.14,61.61 26.42,60.59 C24.62,59.53 23.29,57.94 22.89,53.85 C22.38,48.59 24.3,44.67 24.3,44.67 L29.21,41.59 L33.45,42.36 L44.14,34.18 L57.23,34.18 L62.62,33.41 L77.44,32.64 L98.23,38.61 L105.45,47.27 L102.85,55.36 L101.02,56.8 C101.02,56.8 99.96,58.94 95.51,61.41 C93.15,62.72 91.01,63.92 91.01,63.92 C91.01,63.92 86.85,66.31 78.43,66.89 C73.11,67.26 67.35,66.28 65.1,66.54 C62.82,66.8 58.19,70.77 46.86,68.88 C41.95,68.06 54.93,66.89 50.13,65.49 C45.34,64.1 31.19,60.59 31.19,60.59 Z" fill="#8C6238"/>
  <path d="M105.2,69.19 C105.2,69.19 103.69,68.25 104.35,66.36 C105.01,64.47 106.38,63.95 109.35,62.12 C112.31,60.28 114.79,58.39 116.87,54.82 C119.67,50.01 122.76,41.53 122.76,41.53 C122.76,41.53 124.49,45.48 123.5,52.31 C122.87,56.68 121.43,59.29 121.43,59.29 C121.43,59.29 121.24,65.32 120.58,67.68 C119.92,70.04 117.56,74.47 117.56,74.47 L110.83,82.81 C110.83,82.81 110.71,87.02 107.44,90.29 C105.57,92.16 101.69,94.21 99.61,94.73 C95.21,95.84 90.62,98.06 87.22,99.88 C85.28,100.91 76.62,106.04 71.67,107.48 C62.98,110 58.41,106.11 56.48,105.2 C55.48,104.73 51.96,103.22 50.26,102.09 C48.56,100.96 47.05,99.64 47.05,99.64 C47.05,99.64 40.55,99.55 38.94,98.32 C37.34,97.09 40.73,94.27 40.73,94.27 C40.73,94.27 43.84,96.44 47.8,97.48 C51.76,98.52 54.87,98.99 55.06,97.76 C55.25,96.53 51.85,96.16 48.74,94.65 C45.63,93.14 42.61,91.44 41.58,90.5 C40.54,89.56 40.54,88.05 41.11,87.11 C41.68,86.17 42.81,85.51 44.79,86.26 C46.77,87.01 50.17,88.96 53.37,90.13 C56.48,91.26 59.78,92.49 60.44,90.22 C61.1,87.95 58.18,87.49 55.82,86.17 C53.46,84.85 51.2,83.44 50.35,82.59 C49.5,81.74 49.31,80.14 50.54,79.01 C51.77,77.88 53.93,78.44 53.93,78.44 L65.15,82.02 L76.27,82.21 L85.51,77.69 L88.62,76.94 L92.11,75.24 L105.2,69.19 Z" fill="#A2764A"/>
  <path d="M15.2,73.74 C15.2,73.74 15.93,72.96 16.68,73.71 C17.43,74.46 20.26,78.43 23.84,79.37 C27.42,80.31 29.63,80.03 29.88,82.17 C30.16,84.59 26.29,84.43 23.37,83.32 C19.72,81.93 17.98,78.92 17.04,77.41 C16.1,75.91 15.2,73.74 15.2,73.74 Z" fill="#A2764A"/>
  <path d="M11.47,58.32 C10.43,59.32 11.03,60.75 12.63,62.44 C14.23,64.13 15.83,65.4 16.85,66.03 C17.87,66.66 19.08,66.47 19.62,65.64 C20.03,65 19.96,63.89 18.99,63.02 C18.2,62.31 17.05,61.08 15.3,59.58 C14.44,58.84 13.02,56.81 11.47,58.32 Z" fill="#A2764A"/>
  <path d="M77.91,88.66 C77.86,90.29 79.59,90.91 84.36,90.21 C89.64,89.43 90.03,88.35 89.8,86.48 C89.57,84.61 86.77,85.32 83.9,85.78 C81.01,86.26 77.99,86.18 77.91,88.66 Z" fill="#B7885A"/>
  <path d="M117.98,71.42 C117.05,71.42 113.94,74.53 110.53,76.86 C107.12,79.19 103.39,81.44 102.3,82.06 C101.21,82.68 100.51,83.92 100.98,85.09 C101.45,86.25 103.46,86.72 105.64,85.87 C107.81,85.02 110.62,83.46 112.71,81.91 C115.43,79.89 117.76,77.95 118.61,74.69 C119.04,73.01 118.91,71.42 117.98,71.42 Z" fill="#B7885A"/>
  <path d="M72.16,72.61 C72.6,73.28 73.44,73.83 75.38,72.71 C79.5,70.33 84.19,66.85 87.83,64.18 C91.95,61.16 96.51,56.89 97.3,56.05 C98.09,55.21 99.72,53.15 98.59,52.13 C97.05,50.74 95.84,52.41 93.68,54.36 C91,56.79 87.18,60.11 84.75,62.05 C82.32,63.98 75.38,68.65 74.53,69.19 C73.7,69.74 71.12,71.03 72.16,72.61 Z" fill="#D29B64"/>
  <path d="M27.63,55.29 C26.54,56.14 26.89,57.99 28.71,59.75 C30.53,61.51 32.56,63.8 39.18,65.69 C40.01,65.93 40.82,66.12 41.6,66.28 C47.1,67.39 51.49,66.71 53.09,66.3 C54.91,65.83 56.6,63.8 55.12,62.38 C54.01,61.32 47.61,63.43 40.27,61.16 C31.27,58.4 30.4,53.13 27.63,55.29 Z" fill="#D29B64"/>
  <path d="M29.86,64.95 C29.19,66.41 29.79,67.38 32.16,68.26 C34.53,69.14 38.58,70.4 39.92,71.16 C41.82,72.24 43.21,71.6 43.63,70.62 C44.24,69.2 43.16,68.22 42.01,67.65 C40.52,66.91 35.33,64.75 33.64,64.27 C32.22,63.88 30.6,63.33 29.86,64.95 Z" fill="#D29B64"/>
  <path d="M87.65,72.67 C87.21,74.06 87.82,76.05 93.64,76.33 C98.31,76.55 102.06,74.93 104.34,73.5 C106.72,72 107.89,69.56 106.89,68.45 C105.89,67.34 104.39,68.34 102.23,69.56 C99.83,70.91 97.35,72.17 92.58,71.67 C90.5,71.46 88.12,71.23 87.65,72.67 Z" fill="#D29B64"/>
  <path d="M78.21,79.27 C78.21,79.27 75.67,78.6 75.07,77.47 C74.47,76.34 74.94,75.2 76.07,74.93 C77.2,74.66 78.74,75.46 81.48,75.8 C84.22,76.13 86.75,76 87.89,76 C90.16,76 90.23,78.74 88.16,79.6 C86.09,80.47 83.76,80.13 83.76,80.13 C83.76,80.13 80.96,84.8 71.88,84.47 C62.8,84.14 55.05,79.62 53.8,78.93 C51.6,77.73 52.93,75.53 54.33,75.86 C55.73,76.19 65.34,80.6 70.75,80.66 C76.14,80.74 78.21,79.27 78.21,79.27 Z" fill="#D29B64"/>
  <path d="M29.2,77.17 C28.49,79.01 26.98,78.99 24.19,77.63 C21.4,76.26 13.44,69.49 9.85,65.74 C6.27,61.98 5.81,60.68 5.64,59.65 C5.54,59 5.19,57.76 5.19,57.76 C5.19,57.76 2.35,54.68 2.17,52.58 C1.95,49.85 3.09,49 4.45,49.57 C5.82,50.14 5.19,51.33 5.7,52.98 C5.93,53.71 8.15,55.71 8.49,57.08 C8.76,58.15 8.95,58.73 9.06,59.36 C9.17,59.99 11.22,63.06 17.03,67.67 C22.04,71.65 25.39,73.25 26.76,73.87 C28.13,74.49 29.89,75.4 29.2,77.17 Z" fill="#D29B64"/>
  <path d="M14.34,55.91 C14.34,55.91 9.35,49.21 12.48,42.04 C14.66,37.03 18.45,37.03 19.99,37.1 C20.95,37.14 22.3,37.68 22.11,39.35 C21.83,41.74 20.09,40.73 18.58,42.18 C17.1,43.59 16.53,46.55 17.49,50.98 C18.45,55.41 20.62,58.3 20.89,59.58 C21.15,60.8 20.25,61.38 19.28,60.86 C18.31,60.34 15.94,58.05 14.34,55.91 Z" fill="#D29B64"/>
  <path d="M22.76,90.17 C22.76,90.17 19.74,93.4 17.69,98.84 C15.64,104.28 15.03,108.78 15.98,109.72 C16.93,110.66 26.55,107.51 31.67,103.57 C39.02,97.91 36.95,92.69 36.95,92.69 C36.95,92.69 35.4,90.94 32.72,89.68 C30.39,88.58 28.04,87.88 28.04,87.88 C28.04,87.88 27.33,85.59 25.2,83.94 C23.07,82.29 20.31,81.34 17.08,81.5 C13.85,81.66 9.14,84.21 7.01,86.5 C4.88,88.79 3.23,91.06 3.59,91.91 C4.1,93.11 9.93,90.86 14.34,90.78 C18.76,90.7 22.76,90.17 22.76,90.17 Z" fill="#6E9921"/>
  <path d="M20.92,103.69 C21.74,104.16 26.17,98.76 28.96,96.16 C31.69,93.61 34.54,90.69 34.54,90.69 C34.54,90.69 33.67,90.15 32.84,89.68 C32.32,89.39 31.39,89.1 31.39,89.1 C31.39,89.1 29.18,90.26 26.07,94.5 C23.52,97.94 20.16,103.26 20.92,103.69 Z" fill="#2F7C31"/>
  <path d="M10.02,87.03 C10.53,88.3 12.77,86.12 17.34,85.58 C21.78,85.05 27.01,85.98 27.01,85.98 C27.01,85.98 26.47,84.89 25.49,84.06 C24.55,83.26 23.57,82.79 23.57,82.79 C23.57,82.79 18.97,82.21 15.82,83.37 C13.03,84.4 9.49,85.72 10.02,87.03 Z" fill="#2F7C31"/>
  <path d="M108.83,40.09 C107.83,39.69 106.34,39.21 105.49,40.58 C105.31,40.87 105.21,41.15 105.16,41.4 C103.48,39.47 101.48,39.03 101.15,38.97 C101.65,39.06 107.29,39.99 107.29,37.75 C107.29,35.41 104.31,34.91 101.1,34.37 C97.89,33.84 92.65,33.9 92.65,33.9 C92.65,33.9 95.82,32.42 99.2,32.07 C102.19,31.76 103.76,31.86 105.89,32.86 C108.03,33.86 108.77,35.87 109.91,35.94 C111.05,36.01 112.76,34.95 112.69,33.81 C112.62,32.67 111.32,30.59 109.38,29.05 C109.35,29.03 109.32,29.01 109.29,28.98 C108.4,28.26 106.93,27.52 104.56,27.09 C104.16,27.01 103.91,26.97 103.91,26.97 C103.91,26.97 101.47,24.33 99.53,22.52 C97.59,20.71 96.06,19.58 94.92,19.51 C93.78,19.44 93.61,20.36 93.79,21.07 C93.95,21.68 97.7,25.59 98.81,26.73 C90.91,27.02 85.9,30.2 85.9,30.2 C85.9,30.2 81.94,27.58 75.9,26.5 C70.97,25.61 67,26.55 67,26.55 C67,26.55 69.15,25.28 68.77,22.9 C68.46,20.92 63.71,19.46 57.13,22.39 C51.87,24.73 49.52,27.07 49.52,27.07 C49.52,27.07 44.44,24.93 42.24,24.06 C40.04,23.19 37.96,21.92 37.23,21.92 C36.5,21.92 35.36,23.66 35.49,24.12 C35.62,24.58 37.83,26.52 37.83,26.52 C37.83,26.52 32.69,26.39 28.21,26.19 C23.73,26 22,25.87 20.66,26 C19.32,26.13 17.25,27.47 17.45,28.74 C17.65,30.01 22.79,29.81 25.93,30.01 C29.07,30.21 33.01,30.14 33.01,30.14 C33.01,30.14 29.6,32.14 27.87,33.75 C26.13,35.35 25.06,36.89 26.27,38.36 C27.47,39.83 29.41,38.09 31.08,36.56 C32.75,35.02 34.49,33.55 36.62,33.02 C38.76,32.49 40.69,32.69 40.69,32.69 C40.69,32.69 37.43,34.71 36.08,35.96 C34.19,37.72 33.34,39.63 33.34,39.63 C33.34,39.63 29.13,38.9 26.99,40.03 C24.85,41.16 21.42,42.66 21.18,47.58 C20.94,52.48 22.72,52.32 23.32,52.39 C23.92,52.46 24.59,51.19 24.79,49.78 C24.99,48.37 25.19,46.24 27.33,44.57 C29.47,42.9 31.61,43.5 31.61,43.5 C31.61,43.5 30.54,45.97 31.88,46.77 C33.22,47.57 34.08,45.83 35.42,44.37 C36.76,42.9 38.86,40.49 45.14,37.85 C51.42,35.21 53.2,35.14 54.75,34.98 C56.3,34.82 57.62,34.51 57.62,33.2 C57.62,31.88 54.67,31.65 54.67,31.65 C54.67,31.65 55.68,29.48 58.78,27.7 C61.88,25.92 64.28,26.03 64.55,26.72 C65.12,28.23 60.8,28.55 60.57,31.73 C60.34,34.91 64.46,33.94 66.33,33.86 C68.19,33.78 71.17,33.77 74.36,34.33 C77.23,34.83 80.81,35.83 83.38,36.78 C87.03,38.14 88.87,40.2 89.95,40.59 C91.03,40.98 95.37,40.64 99.39,43.15 C103.01,45.41 103.67,49.68 102.44,52.51 C101.66,54.29 100.8,55.62 100.81,56.46 C100.82,57.3 101.59,57.47 102.67,56.62 C105.73,54.22 107.61,50.4 107.74,48.62 C107.75,48.51 107.74,48.43 107.74,48.32 C107.76,48.1 107.76,47.86 107.75,47.62 C107.75,47.56 107.75,47.49 107.74,47.43 C107.73,47.25 107.7,47.06 107.67,46.87 C107.65,46.71 107.62,46.55 107.59,46.41 C107.56,46.28 107.52,46.15 107.49,46.02 C107.46,45.93 107.44,45.84 107.42,45.76 C107.29,45.32 107.13,44.86 106.91,44.36 C108.06,44.84 111.13,46.2 111.17,47.18 C111.28,49.35 108.03,53.72 105.09,56.12 C102.15,58.52 94.57,61.63 93.57,62.03 C92.57,62.43 91.14,63.22 91.47,64.54 C91.78,65.78 93.86,65.99 95.14,65.61 C97.63,64.88 103.28,62.89 107.69,59.22 C112.1,55.55 114.98,50.72 115.32,47.18 C115.65,43.63 109.83,40.49 108.83,40.09 Z" fill="#D29B64"/>
</svg>
